lib/flags/l/PA.svg

<svg xmlns="http://www.w3.org/2000/svg" fill="none" viewBox="0 0 32 24"><mask id="PA_svg__a" width="32" height="24" x="0" y="0" mask-type="alpha" maskUnits="userSpaceOnUse"><path fill="#fff" d="M0 0H32V24H0z"/></mask><g mask="url(#PA_svg__a)"><path fill="#F7FCFF" fill-rule="evenodd" d="M0 0V24H32V0H0Z" clip-rule="evenodd"/><mask id="PA_svg__b" width="32" height="24" x="0" y="0" mask-type="alpha" maskUnits="userSpaceOnUse"><path fill="#fff" fill-rule="evenodd" d="M0 0V24H32V0H0Z" clip-rule="evenodd"/></mask><g fill-rule="evenodd" clip-rule="evenodd" mask="url(#PA_svg__b)"><path fill="#E31D1C" d="M16 0V12H32V0H16zM23.0209 19.1497 20.7185 20.5744 21.6123 18.1827 19.6553 16.372H22.0291L23.0209 13.7849 23.7778 16.372H26.1553L24.4419 18.1827 25.2808 20.5744 23.0209 19.1497z"/><path fill="#2E42A5" d="M9.02091 8.36481 6.71847 9.78952 7.61235 7.39778 5.65527 5.5871H8.02906L9.02091 3 9.77782 5.5871H12.1553L10.4419 7.39778 11.2808 9.78952 9.02091 8.36481zM0 12V24H16V12H0z"/></g></g></svg>

<svg xmlns="http://www.w3.org/2000/svg" fill="none" viewBox="0 0 32 24"><mask id="PA_svg__a" width="32" height="24" x="0" y="0" maskUnits="userSpaceOnUse"><path fill="#fff" d="M0 0h32v24H0z"/></mask><g mask="url(#PA_svg__a)"><path fill="#F7FCFF" fill-rule="evenodd" d="M0 0v24h32V0H0z" clip-rule="evenodd"/><mask id="PA_svg__b" width="32" height="24" x="0" y="0" maskUnits="userSpaceOnUse"><path fill="#fff" fill-rule="evenodd" d="M0 0v24h32V0H0z" clip-rule="evenodd"/></mask><g fill-rule="evenodd" clip-rule="evenodd" mask="url(#PA_svg__b)"><path fill="#E31D1C" d="M16 0v12h16V0H16zm7.02 19.15l-2.302 1.424.894-2.391-1.957-1.811h2.374l.992-2.587.757 2.587h2.377l-1.713 1.81.839 2.392-2.26-1.424z"/><path fill="#2E42A5" d="M9.02 8.365L6.719 9.79l.894-2.392-1.957-1.81H8.03L9.021 3l.757 2.587h2.377l-1.713 1.81.839 2.393-2.26-1.425zM0 12v12h16V12H0z"/></g></g></svg>
